svg/edit.svg

<?xml version="1.0" encoding="UTF-8"?>
<svg xmlns="http://www.w3.org/2000/svg" xmlns:xlink="http://www.w3.org/1999/xlink" width="32" height="32" viewBox="0 0 32 32">
<path fill-rule="nonzero" fill="rgb(0%, 0%, 0%)" fill-opacity="1" d="M 28.097656 2.523438 C 27.800781 2.550781 27.523438 2.683594 27.3125 2.894531 L 26.375 3.820312 L 28.21875 5.675781 L 29.136719 4.734375 C 29.597656 4.25 29.632812 3.582031 29.175781 3.125 L 28.859375 2.796875 C 28.65625 2.601562 28.378906 2.5 28.097656 2.523438 M 25.488281 4.707031 L 15.613281 14.59375 L 14.527344 16.984375 C 14.40625 17.261719 14.71875 17.578125 15 17.46875 L 17.476562 16.429688 L 27.347656 6.554688 Z M 8.511719 5.511719 C 6.855469 5.511719 5.511719 6.855469 5.511719 8.511719 L 5.511719 23.488281 C 5.511719 25.144531 6.855469 26.488281 8.511719 26.488281 L 23.488281 26.488281 C 25.144531 26.488281 26.488281 25.144531 26.488281 23.488281 L 26.488281 9.535156 L 24.492188 11.535156 L 24.492188 23.488281 C 24.492188 24.039062 24.042969 24.488281 23.492188 24.488281 L 8.511719 24.488281 C 7.960938 24.488281 7.511719 24.039062 7.511719 23.488281 L 7.511719 8.511719 C 7.511719 7.960938 7.960938 7.511719 8.511719 7.511719 L 20.566406 7.511719 L 22.566406 5.511719 Z M 8.511719 5.511719 "/>
</svg>

<svg role="img" viewBox="0 0 32 32" height="32" width="32" xmlns="http://www.w3.org/2000/svg"><path d="M28.098 2.523c-.297.028-.575.16-.785.372l-.938.925 1.844 1.856.918-.942c.46-.484.496-1.152.039-1.609l-.317-.328a.983.983 0 0 0-.761-.274m-2.61 2.184-9.875 9.887-1.086 2.39c-.12.278.192.594.473.485l2.477-1.04 9.87-9.874Zm-16.976.805a3 3 0 0 0-3 3v14.976a3 3 0 0 0 3 3h14.976a3 3 0 0 0 3-3V9.535l-1.996 2v11.953c0 .551-.449 1-1 1H8.512c-.551 0-1-.449-1-1V8.512c0-.551.449-1 1-1h12.054l2-2Zm0 0"/></svg>
